!!!COM: Music21
!!!OTL: waltz_Ode-To-Heaney
!!!OMV: waltz_Ode-To-Heaney
**kern
*clefG2
*k[f#c#]
*M3/4
=1
4e
8.eL
16bJk
8.aL
16bJk
=
4g
4g
16eLL
16f#J
8gJ
=
8.f#L
16dJk
4dd
8.cc#L
16ddJk
=
16bLL
16cc#J
8ddJ
8.aL
16f#Jk
8.eL
16dJk
=
4e
8.eL
16bJk
8.aL
16bJk
=
4g
4g
16eLL
16f#J
8gJ
!!linebreak:original
=
8.f#L
16dJk
8.eL
16f#Jk
8.ddL
16bJk
=
8.aL
16bJk
8.ddL
16eeJk
8.eeL
16ddJk
=
4e
8.eL
16bJk
8.aL
16bJk
=
4g
4g
16eLL
16f#J
8gJ
=
8.f#L
16dJk
4dd
8.cc#L
16ddJk
=
8.aL
16ff#Jk
8.eeL
16ddJk
8.bL
16ddJk
!!linebreak:original
=
8.ff#L
16ggJk
8.ff#L
16ggJk
8.eeL
16ddJk
=
16bLL
16cc#J
8ddJ
8.cc#L
16aJk
8.bL
16aJk
=
4f#
8f#L
8ddJ
8cc#L
8ddJ
=
8bL
8ddJ
8aL
8f#J
8eL
8dJ
=||
*M3/4
4e
8.eL
16bJk
8.aL
16bJk
=
4g
4g
16eLL
16f#J
8gJ
!!linebreak:original
=
8.f#L
16dJk
4dd
8.cc#L
16ddJk
=
16bLL
16cc#J
8ddJ
8.aL
16f#Jk
8.eL
16dJk
=
4e
8.eL
16bJk
8.aL
16bJk
=
4g
4g
16eLL
16f#J
8gJ
=
8.f#L
16dJk
8.eL
16f#Jk
8.ddL
16bJk
=
8.aL
16bJk
8.ddL
16eeJk
8.eeL
16ddJk
!!linebreak:original
=
4e
8.eL
16bJk
8.aL
16bJk
=
4g
4g
16eLL
16f#J
8gJ
=
8.f#L
16dJk
4dd
8.cc#L
16ddJk
=
8.aL
16ff#Jk
8.eeL
16ddJk
8.bL
16ddJk
=
8.ff#L
16ggJk
8.ff#L
16ggJk
8.eeL
16ddJk
=
16bLL
16cc#J
8ddJ
8.cc#L
16aJk
8.bL
16aJk
!!linebreak:original
=
4f#
8f#L
8ddJ
8cc#L
8ddJ
=
8bL
8ddJ
8aL
8f#J
8eL
8dJ
=||
4g
8.gL
16aJk
8.bL
16gJk
=
4a
8.aL
16gJk
8.f#L
16dJk
=
4e
8.eL
16ggJk
8.ff#L
16ggJk
=
8.eeL
16ggJk
8.ddL
16bJk
8.aL
16f#Jk
!!linebreak:original
=
4g
8.gL
16aJk
8.bL
16gJk
=
4a
8.aL
16bJk
8.bL
16aJk
=
4b
4gg
8.ggL
16aaJk
=
8.ff#L
16eeJk
8.ddL
16bJk
8.aL
16f#Jk
=
4g
8.gL
16aJk
8.bL
16gJk
=
4a
8.aL
16gJk
8.f#L
16dJk
!!linebreak:original
=
4e
8.eL
16ggJk
8.ff#L
16ggJk
=
8.eeL
16ggJk
8.ddL
16bJk
8.aL
16ff#Jk
=
4gg
8.ff#L
16ggJk
8.eeL
16ddJk
=
16bLL
16cc#J
8ddJ
8.cc#L
16aJk
8.bL
16aJk
=
4f#
8.f#L
16ddJk
8.cc#L
16ddJk
=
8.bL
16ddJk
8.aL
16f#Jk
8.eL
16dJk
=||
*-
